X:1
T:The Cock and the Hen
L:1/8
Q:320
M:9/8
K:D
c |: BBB fdB FBd | BBB fdB cBA | BBB fdB FBd |1 agf efd cBA :|2 agf efd efg |: afd dfg bge | afd ddd ecA | afd dfg bge |1 fgf efd cBA :|2 fgf efd cBA |: d2e fdd edd | fdd gdd afe | d/e/de fdd edd |1 agf efd cBA :|2 agf efd cBA ||
